X:1
T:What a Precious Savior
T:What a Precious Savior
T:Henry Lake Gilmour
T:Susie May Patterson Wyburn, 1912
T:Public Domain Courtesy of the Cyber Hymnal™
T:Public Domain Courtesy of the Cyber Hymnal™
C:Henry Lake Gilmour
Z:Public Domain
Z:Courtesy of the Cyber Hymnal™
%%score ( 1 2 ) 3
L:1/8
Q:1/4=105
M:4/4
K:G
V:1 treble 
V:2 treble 
V:3 bass 
V:1
 D2 [DG]2 [GB]>[Gc] [GB][DA] | [DG]2 [GB]2 [Ge]2 [Gd]2 | [Fd]2 [FA][GB] [Ac]2 [GB][FA] | %3
w: 1.~Tho’ thou’rt wan- der- ing a-|way from Je- sus,|Wea- ry, and far from the|
w: 2.~There’s no love like un- to|that of Je- sus,|Faith- ful and true He will|
w: 3.~When temp- ta- tion press- eth|hard up- on thee;|And all the way seems so|
w: 4.~What a pre- cious liv- ing|friend is Je- sus!|Sav- ing and keep- ing un-|
 [EG]2 [GB]2 [FA]4 | D2 [DG]2 [GB]>[Gc] [GB][DA] | [DG]2 [GB]2 [Ge]2 [Gd]2 | %6
w: Fa- ther’s home;|Lis- ten to the bless- èd|in- vi- ta- tion,|
w: ev- er be;|Come, O come! as nee- dy|and de- pend- ent;|
w: dark and drear;|Look by faith un- to this|lov- ing Sav- ior,|
w: to the end;|Where sin once pre- vail- éd,|grace a- bound- eth,|
 [G^c]2 [Gc]2 [Gd]2 [EG][E=c] | [DB]2 [DA]2 [DG]4 ||"^Refrain" [Gd]2 [Fd][Fd] [Gd]2 [Fc]2 | %9
w: Hear the Sav- ior who|bids thee come.||
w: Grace suf- fi- cient is|prom- ised thee.||
w: Thou shalt tri- umph o’er|doubt and fear.||
w: Gifts of strength ev- ery|day He’ll send.||
 [GB]2 [GB][GB] [GB]2 [DG]2 | [DF]2 [FA]2 [FA]4 | [DG]2 [GB]2 !fermata![GB]2 [EG][FA] | %12
w: |||
w: |||
w: |||
w: |||
 [GB]2 [GB][GB] [Gc][GB][DA][DG] | [Gc][Gc][Gd][Gd] [Ge]4 | %14
w: ||
w: ||
w: ||
w: ||
"^rit." (3[G^c][Gc][Gc] [Gc][Gc] [Gd][Gd][EG][E=c] | [DB]2 [DA]2 [DG]4 |] %16
w: ||
w: ||
w: ||
w: ||
V:2
 D2 x6 | x8 | x8 | x8 | D2 x6 | x8 | x8 | x8 || x8 | x8 | x8 | x8 | x8 | x8 | x8 | x8 |] %16
V:3
 [G,B,]2 [G,B,]2 [G,D]>[G,E] [G,D][G,C] | [G,B,]2 [G,D]2 [G,C]2 [G,B,]2 | %2
w: ~ ~ ~ ~ ~ ~|~ ~ ~ ~|
 [D,A,]2 [D,D][D,D] [D,D]2 [D,D][D,C] | [E,B,]2 [E,^C]2 [D,D]4 | %4
w: ~ ~ ~ ~ ~ ~|~ ~ ~|
 [G,B,]2 [G,B,]2 [G,D]>[G,E] [G,D][G,C] | [G,B,]2 [G,D]2 [G,C]2 [G,B,]2 | %6
w: ~ ~ ~ ~ ~ ~|~ ~ ~ ~|
 [_E,^A,]2 [E,A,]2 [D,B,]2 [=E,B,][^A,,=A,] | [D,G,]2 [D,C]2 [G,B,]4 || %8
w: ~ ~ ~ ~ ~|~ ~ ~|
 [G,B,]2 [A,C][A,C] [B,D]2 [A,D]2 | [G,D]2 [G,D][G,D] [G,D]2 [G,B,]2 | [D,A,]2 [D,C]2 [D,D]4 | %11
w: “Come now and let us|rea- son to- ge- ther,”|Saith the Lord|
 [G,B,]2 [G,D]2 [G,D]2 [E,B,][D,C] | [G,D]2 [G,D][G,D] [G,E][G,C][G,C][G,B,] | %13
w: in His Word; “Tho’ your|sins be as scar- let, They shall|
 [E,C][E,C][D,B,][D,B,] [D,C]4 | (3[_E,^A,][E,A,][E,A,] [E,A,][E,A,] [D,B,][D,B,][=E,B,][^A,,=A,] | %15
w: be as white as snow,|Tho’ they be red like crim- son, They shall|
 [D,G,]2 [D,C]2 [G,,B,]4 |] %16
w: be as wool.”|

